svg/misc/chili-pepper.svg

<svg width="384" height="512" viewBox="0 0 384 512" version="1.1" xmlns="http://www.w3.org/2000/svg"><path fill="currentColor" d="M248.105,146.918c0.202,-0.436 0.41,-0.867 0.623,-1.293l10.345,0.083c12.673,0.103 24.012,7.895 28.653,19.688l3.202,8.139c5.149,13.087 17.781,21.692 31.845,21.692c11.399,0 22.049,-5.676 28.406,-15.137l5.344,-7.954c4.442,-6.611 10.918,-11.543 18.395,-14.086c6.497,17.954 8.639,40.357 9.065,66.157c1.007,60.911 -43.783,159.698 -103.67,209.859c-59.887,50.161 -143.931,47.602 -210.361,44.531c-66.429,-3.071 -69.952,-29.175 -69.952,-39.412c0,-9.248 19.301,-9.724 50.113,-10.484l0.015,-0.001c3.293,-0.081 6.717,-0.165 10.263,-0.264c36.737,-1.024 89.076,-28.152 111.219,-51.185c22.143,-23.034 48.312,-80.251 48.312,-127.963c0,-42.112 9.22,-61.819 24.788,-95.099c1.1,-2.351 2.232,-4.771 3.395,-7.271Zm57.957,-34.581c1.352,-12.978 2.294,-29.89 -0.062,-39.837c-3.6,-15.2 -12.167,-25.667 -16,-29l-2,-11.5l16,0l0,11.5c2.333,2.833 7.7,11.5 14.5,23.5c5.225,9.22 11.965,33.201 15.412,49.259c15.715,5.567 26.626,14.841 34.153,27.255c-10.062,3.815 -18.758,10.672 -24.823,19.699l-5.344,7.954c-3.385,5.038 -9.056,8.06 -15.125,8.06c-7.488,0 -14.214,-4.582 -16.956,-11.551l-3.202,-8.138c-6.805,-17.295 -23.12,-28.91 -41.571,-29.778c13.301,-11.639 31.295,-16.231 45.018,-17.423Z"></path></svg>

<svg width="384" height="512" viewBox="0 0 384 512" fill="none" xmlns="http://www.w3.org/2000/svg">
<path d="M306.062 112.337C307.414 99.3592 308.356 82.4467 306 72.5C302.4 57.3 293.833 46.8333 290 43.5L288 32H304V43.5C306.333 46.3333 311.7 55 318.5 67C323.725 76.2205 330.465 100.201 333.912 116.259C349.627 121.826 360.538 131.1 368.065 143.514C358.003 147.329 349.307 154.186 343.242 163.213L337.898 171.167C334.513 176.205 328.842 179.227 322.773 179.227C315.285 179.227 308.559 174.645 305.817 167.676L302.615 159.538C295.81 142.243 279.495 130.628 261.044 129.76C274.345 118.121 292.339 113.529 306.062 112.337Z" fill="black"/>
<path d="M248.105 146.918C248.307 146.482 248.515 146.051 248.728 145.625L259.073 145.708C271.746 145.811 283.085 153.603 287.726 165.396L290.928 173.535C296.077 186.622 308.709 195.227 322.773 195.227C334.172 195.227 344.822 189.551 351.179 180.09L356.523 172.136C360.965 165.525 367.441 160.593 374.918 158.05C381.415 176.004 383.557 198.407 383.983 224.207C384.99 285.118 340.2 383.905 280.313 434.066C220.426 484.227 136.382 481.668 69.9524 478.597C3.52279 475.526 0 449.422 0 439.185C0 429.937 19.301 429.461 50.1128 428.701L50.1283 428.7C53.4209 428.619 56.8448 428.535 60.3906 428.436C97.1282 427.412 149.467 400.284 171.61 377.251C193.753 354.217 219.922 297 219.922 249.288C219.922 207.176 229.142 187.469 244.71 154.189C245.81 151.838 246.942 149.418 248.105 146.918Z" fill="black"/>
</svg>
